T: Clee Hill
M: 4/4
L: 1/8
K: Dmaj
F3 G A3 B | AdcB B2 A2 | E3 F G3 G | GcBA F2 | F3 G A3 B | AdcB B2 A2 | E3 F G3 A | BABc d3 :|fAfA f3 A | ABcd c2 B2 | gBgB g3 B | Bcde d2 c2 |fAfA f3 A | ABcd c2 B2 | Bcdc/B/ Adf>g | feBc d2 d :|
